X:435
T: Tynagh Jig
T: Delaney's
T: Port T\'ineatha
S: "Ceol Rince na hEireann" 1/45
Z: B.Black
L: 1/8
M: 6/8
R: jig
K: Dmix
(3DEG|A2A DED|AFA dcA|GEE cEE|G2E DEG|
A2A DED|AFA dcA|GEE cEE|DED D :|
B|Adc ABd|ecA dcA|GEE cEE|G2E DEG|
Adc ABd|ecA dcA|GEE cEE|DED D2 :|
